svgs/solid/desktop-arrow-down.svg

<svg xmlns="http://www.w3.org/2000/svg" viewBox="0 0 576 512"><!-- Font Awesome Pro 6.0.0-alpha2 by @fontawesome - https://fontawesome.com License - https://fontawesome.com/license (Commercial License) --><path d="M191.031 135.031C181.656 144.406 181.656 159.594 191.031 168.969L271.031 248.969C280.406 258.344 295.594 258.344 304.969 248.969L384.969 168.969C394.344 159.594 394.344 144.406 384.969 135.031S360.406 125.656 351.031 135.031L312 174.062V24C312 10.75 301.25 0 288 0S264 10.75 264 24V174.062L224.969 135.031C220.281 130.344 214.156 128 208 128S195.719 130.344 191.031 135.031ZM528 0H352V64H512V288H64V64H224V0H48C21.5 0 0 21.5 0 48V368C0 394.5 21.5 416 48 416H240L224 464H152C138.75 464 128 474.75 128 488S138.75 512 152 512H424C437.25 512 448 501.25 448 488S437.25 464 424 464H352L336 416H528C554.5 416 576 394.5 576 368V48C576 21.5 554.5 0 528 0Z"/></svg>

<svg xmlns="http://www.w3.org/2000/svg" viewBox="0 0 576 512"><!--! Font Awesome Pro 6.0.0-alpha3 by @fontawesome - https://fontawesome.com License - https://fontawesome.com/license (Commercial License) --><path d="M191 135c-9.375 9.375-9.375 24.56 0 33.94l80 80c9.375 9.375 24.56 9.375 33.94 0l80-80c9.375-9.375 9.375-24.56 0-33.94s-24.56-9.375-33.94 0L312 174.1V24C312 10.75 301.3 0 288 0S264 10.75 264 24v150.1L224.1 135C220.3 130.3 214.2 128 208 128S195.7 130.3 191 135zM528 0H352v64h160v224H64V64h160V0H48C21.5 0 0 21.5 0 48v320C0 394.5 21.5 416 48 416h192L224 464H152C138.8 464 128 474.8 128 488S138.8 512 152 512h272c13.25 0 24-10.75 24-24s-10.75-24-24-24H352L336 416h192c26.5 0 48-21.5 48-48v-320C576 21.5 554.5 0 528 0z"/></svg>
